!!!COM: Haydn, Franz Joseph
!!!OTL: String Quartet in D major
!!!OPS: Opus 1
!!!ONM: No. 3
!!!OMD: Presto
!!!OMV: 3
!!!SCT: H III:3
!!!SCA: Thematisch-bibliographisches Werkevererzeichnis (A. van Hoboken)
!!!YOR: Bremner Edition, 1772
!!!ENC: Frances Bennion
!!!CDT: 1732/3/31/-1809/5/31/
!!!CNT: Oesterreich
!!!YEC: Copyright (c) 1994, 2000 Center for Computer Assisted Research in the Humanities
!!!YEM: Rights to all derivative editions reserved.
!!!YEM: Refer to licensing agreement for further details.
!!!YEN: United States of America
**kern	**kern	**kern	**kern
*k[f#c#]	*k[f#c#]	*k[f#c#]	*k[f#c#]
*D:	*D:	*D:	*D:
*clefF4	*clefC3	*clefF	*clefF
*M2/4	*M2/4	*M2/4	*M2/4
4.r	4.r	4.r	4.r
8r	8r	8r	8aa
=1	=1	=1	=1
2r	8d	2r	8ff#
.	8f#	.	8dd
.	8c#	.	8a
.	8A	.	8gg
=2	=2	=2	=2
4.r	8d	4.r	4gg
.	8A	.	.
.	8D	.	8ff#
8F#	8r	8a	8r
=3	=3	=3	=3
8G	2r	8b	2r
8E	.	8g	.
8A	.	8e	.
8AA	.	8cc#	.
=4	=4	=4	=4
8D	2r	4cc#	4.r
8AA	.	.	.
8DD	.	8dd	.
8r	.	8r	8dd
=5	=5	=5	=5
2r	8d	2r	8ff#
.	8f#	.	8aa
.	8B	.	8ddd
.	8d#	.	8bb
=6	=6	=6	=6
4.r	8e	4.r	4aa
.	8B	.	.
.	8E	.	8gg#
8G#	8r	8dd	8r
=7	=7	=7	=7
8A	2r	8cc#	2r
8F#	.	8aa	.
8D	.	8b	.
8E	.	8gg#	.
=8	=8	=8	=8
8A	4.r	4a	4.r
8E	.	.	.
8AA	.	8r	.
8r	8r	8r	8aa
=9	=9	=9	=9
2r	8B	2r	8ff#
.	8f#	.	8dd#
.	8b	.	8b
.	8a	.	8dd#
=10	=10	=10	=10
4.r	8g	4.r	4dd#
.	8f#	.	.
.	8e	.	8ee
8D#	8r	8f#	8r
=11	=11	=11	=11
8E	2r	8g	2r
8F#	.	8a	.
8G	.	8b	.
8A	.	8d#	.
=12	=12	=12	=12
8G	2r	4d#	4.r
8F#	.	.	.
8E	.	8e	.
8r	.	8r	8b
=13	=13	=13	=13
2r	8g	2r	8ee
.	8e	.	8gg
.	8g	.	8bb
.	8g#	.	8dd
=14	=14	=14	=14
4.r	8a	4.r	4dd
.	8e	.	.
.	8A	.	8cc#
8c#	8r	8g	8r
=15	=15	=15	=15
8d	2r	8f#	2r
8F#	.	8a	.
8B	.	8dd	.
8G#	.	8f#	.
=16	=16	=16	=16
8A	2r	4f#	4.r
8E	.	.	.
8AA	.	8e	.
8r	.	8r	8a
=17	=17	=17	=17
8AA	2r	2cc#	2gg
8C#	.	.	.
8E	.	.	.
8A	.	.	.
=18	=18	=18	=18
4D	8D	2dd	4.ff#
.	8F#	.	.
4r	8A	.	.
.	8d	.	8a
=19	=19	=19	=19
8AA	4A	2gg	2ccc#
8C#	.	.	.
8E	4r	.	.
8A	.	.	.
=20	=20	=20	=20
4D	8d	4.ff#	4.ddd
.	8f#	.	.
4r	8a	.	.
.	8dd	8dd	8dd
=21	=21	=21	=21
4GG	4b	8gg	8gg
.	.	8gg	8bb
4r	4r	8bb	8ddd
.	.	8gg	8bb
=22	=22	=22	=22
8D	8d	4gg	4bb
16d	16dd	.	.
16c#	16cc#	.	.
8d	8dd	8ff#	8aa
8A	8a	8cc#	8gg
=23	=23	=23	=23
8d	8dd	8dd	8ff#
8B	8b	8dd	8dd
8G	8g	8e	8e
8A	8a	8cc#	8cc#
=24	=24	=24	=24
8D	8d	4d	4d
8AA	8A	.	.
8DD	8D	8r	4r
8r	8r	8r	.
=25	=25	=25	=25
4D	8r	2r	8r
.	8f	.	8dd
4r	8f	.	8dd
.	8f	.	8dd
=26	=26	=26	=26
8r	32e	8r	32cc#
.	32f	.	32dd
.	8.g	.	8.ee
8A	.	8ee	.
8A	4r	8ee	4r
8G	.	8ee	.
=27	=27	=27	=27
32F	8r	32dd	8r
32E	.	32ee	.
8.D	.	8.ff	.
.	8a	.	8ff
4r	8a	4r	8ff
.	8a	.	8ff
=28	=28	=28	=28
8r	32g	8r	32ee
.	32a	.	32ff
.	8.b-	.	8.gg
8c	.	8gg	.
8c	4r	8gg	4r
8B-	.	8gg	.
=29	=29	=29	=29
32A	8r	32ff	8r
32G	.	32gg	.
8.F	.	8.aa	.
.	8cc	.	8aa
4r	8cc	4r	8aa
.	8cc	.	8aa
=30	=30	=30	=30
8r	32b	8r	32gg#
.	32cc	.	32aa
.	8.dd	.	8.bb
8e	.	8bb	.
8e	4r	8bb	8r
8d	.	8bb	16ddd
.	.	.	16bb
=31	=31	=31	=31
8c	8cc	8aa	8aa
8C	8c	8ee	8ee
8D	8d	8ff	8ff
8E	8e	8g#	8g#
=32	=32	=32	=32
8AA	8A	4a	4a
8A	8a	.	.
8AA	8A	8r	8r
8r	8r	8r	8a
=33	=33	=33	=33
8AA	8A	8r	2aa
8AA	8A	8A	.
8AA	8A	8A	.
8AA	8A	8A	.
=34	=34	=34	=34
8AA	8A	32B	4gg#
.	.	32c#	.
.	.	8.d	.
8AA	8A	.	.
8AA	8A	32c#	4gg
.	.	32d	.
.	.	8.e	.
8AA	8A	.	.
=35	=35	=35	=35
8AA	8A	32d	4ff
.	.	32e	.
.	.	8.f	.
8AA	8A	.	.
8AA	8A	32e	4cc#
.	.	32f	.
.	.	8.g	.
8AA	8A	.	.
=36	=36	=36	=36
4D	4d	4f	8dd
.	.	.	24f
.	.	.	24e
.	.	.	24d
4d	4dd	4d	8dd
.	.	.	24f
.	.	.	24e
.	.	.	24d
=37	=37	=37	=37
4A	4a	4a	4a
4r	4r	8r	4r
.	.	8a	.
=38	=38	=38	=38
8r	8r	8dd	4.r
8F	8f	8dd	.
8E	8e	8dd	.
8D	8d	8dd	8dd
=39	=39	=39	=39
8A	8a	32cc#	8gg
.	.	32b	.
.	.	8.a	.
8c#	8cc#	.	8gg
8B	8b	8r	8gg
8A	8a	8a	8gg
=40	=40	=40	=40
8d	8dd	8cc	32ff#
.	.	.	32ee
.	.	.	8.dd
8F#	8f#	8cc	.
8E	8e	8cc	8r
8D	8d	8cc	8dd
=41	=41	=41	=41
8G	8g	32b	8ff
.	.	32a	.
.	.	8.g	.
8B	8b	.	8ff
8A	8a	8r	8ff
8G	8g	8g	8ff
=42	=42	=42	=42
8c	8cc	8bb-	32ee
.	.	.	32dd
.	.	.	8.cc
8E	8e	8bb-	.
8D	8d	8bb-	8r
8C	8c	8b-	24bb-
.	.	.	24gg
.	.	.	24ee
=43	=43	=43	=43
8F	8f	8a	8ff
8d	8dd	8dd	8dd
8B-	8b-	8b-	8b-
8c	8cc	8cc	8cc
=44	=44	=44	=44
8F	8f	4f	4f
8C	8c	.	.
8F	4F	4r	4r
8D	.	.	.
=45	=45	=45	=45
8d	4r	4r	8r
8d	.	.	8ff#
8d	4a	4dd	8ff#
8c	.	.	8ff#
=46	=46	=46	=46
32B-	4g	4dd	32gg
32c	.	.	32aa
8.d	.	.	8.bb-
8r	32G	32b-	4r
.	32A	32cc	.
.	8.B-	8.dd	.
8G	.	.	.
=47	=47	=47	=47
8c	4r	4r	8r
8c	.	.	8ee
8c	4g	[4cc	8ee
8B-	.	.	8ee
=48	=48	=48	=48
32A	4f	4cc]	32ff
32B-	.	.	32gg
8.c	.	.	8.aa
4r	4r	4r	32dd
.	.	.	32ee
.	.	.	8.ff
=49	=49	=49	=49
2r	2r	32ee	32gg
.	.	32ff	32aa
.	.	8.gg	8.bb-
.	.	32cc#	32ee
.	.	32dd	32ff
.	.	8.ee	8.gg
=50	=50	=50	=50
4D	4d	32dd	32ff
.	.	32ee	32gg
.	.	8.ff	8.aa
4G	4g	16b-	16gg
.	.	16a	16ff
.	.	16g	16ee
.	.	16f	16dd
=51	=51	=51	=51
8A	8a	4e	4cc#
8E	8e	.	.
4AA	4A	4r	8r
.	.	.	8A
=52	=52	=52	=52
2AA	4.g	2c#	8ee
.	.	.	8ee
.	.	.	8ee
.	8e	.	8g
=53	=53	=53	=53
4D	4d	32d	32f
.	.	32e	32g
.	.	8.f	8.a
4B-	4b-	32d	32d
.	.	32e	32e
.	.	8.f	8.f
=54	=54	=54	=54
4G	4g	32e	32e
.	.	32f	32f
.	.	8.g	8.g
4A	4a	16f	16f
.	.	16e	16e
.	.	16d	16d
.	.	16c#	16c#
=55	=55	=55	=55
8D	8d	4d	4d
8AA	8A	.	.
8DD	8D	8r	4r
8r	8r	8r	.
==	==	==	==
*-	*-	*-	*-
!!!RWG1: This file contains only pitch and duration data.
!!!RWG2: Transposing instruments are not transposed.
!!!RWG3: Spines may have incompatible meters.
!!!RWG4: Durations of rests and tied notes may be interpreted.
!!!RWG: Key is interpreted using the Humdrum key tool.
!!!GTL: 10 Divertimentos
!!!AFT: stage1
!!!END: 1997/04/15
!!!KEY: 51668882
!!!EMD: Converted from MuseData to Humdrum Dec 16, 2000, by Andreas Kornstaedt using muse2kern.
!!!EMD: Manual editing by Craig Sapp, Nov 2001
